X: 05070
T: PAUL'S HORNPIPE
C: Bob McQuillen 24 Nov 80
B: Bob's Note Book 5 #70
%R: hornpipe, reel
Z: 2021 John Chambers <jc:trillian.mit.edu>
M: C
L: 1/8
K: D
AB \
| dAFD GBAG | FAdf e2AB | dfaf bagf | gfed cecA |\
| dAFD GBAG | FAdf gfed | cedB Aceg | f2d2 d2 :|
|: cd \
| edcB ABAG | FDFA d2cd | edcA dfgf | f2ed egfe |\
| dAFD GBAG | FAdf afdA | Bged cBAc | e2d2 d2 :|
%%begintext align
%% For my
%% friend Paul Milde, one of the Boston
%% area's most enthusiastic musicians.
%%endtext

%%sep 1 1 500

%%sep 1 1 500

